src/assets/icons/HomeIcon.svg

<svg width="36" height="36" viewBox="0 0 36 36" fill="none" xmlns="http://www.w3.org/2000/svg">
<path d="M2.18676 13.5016L18 4.50272L33.8132 13.5015C34.6862 13.4735 35.4677 12.9458 35.8151 12.1429C36.3088 11.0017 35.78 9.67796 34.6339 9.18631L18.8936 0.183597C18.323 -0.0611991 17.6764 -0.0611991 17.1058 0.183597L1.36548 9.18631C0.536819 9.54181 0 10.3542 0 11.2527C0 12.4711 0.972547 13.4634 2.18676 13.5016Z" fill="black"/>
<path d="M18 8.38594L3.375 16.7086V33.75C3.375 34.9926 4.38236 36 5.625 36H13.5V24.75C13.5 23.5074 14.5074 22.5 15.75 22.5H20.25C21.4926 22.5 22.5 23.5074 22.5 24.75V36H30.375C31.6176 36 32.625 34.9926 32.625 33.75V16.7086L18 8.38594Z" fill="black"/>
</svg>

<?xml version="1.0" encoding="UTF-8"?><svg id="Layer_1" xmlns="http://www.w3.org/2000/svg" viewBox="0 0 36 36"><path d="M2.19,13.5l15.81-9,15.81,9c.87-.03,1.65-.56,2-1.36.49-1.14-.04-2.46-1.18-2.96L18.89.18c-.57-.24-1.22-.24-1.79,0L1.37,9.19c-.83.36-1.37,1.17-1.37,2.07,0,1.22.97,2.21,2.19,2.25Z"/><path d="M18,8.39L3.38,16.71v17.04c0,1.24,1.01,2.25,2.25,2.25h7.88v-11.25c0-1.24,1.01-2.25,2.25-2.25h4.5c1.24,0,2.25,1.01,2.25,2.25v11.25h7.88c1.24,0,2.25-1.01,2.25-2.25v-17.04l-14.62-8.32Z"/></svg>
